!!!COM: Bach, Johann Sebastian
!!!CDT: 1685/02/21/-1750/07/28/
!!!OPR: Partita for solo violin, No. 1 in D Major
!!!OTL: Movement 3: Courante
!!!ODT: 1720///
!!!SCT: BWV 1002
**kern
*>[A,A,B,B]
*>norep[A,B]
*>A
*Ivioln
*clefG2
*k[f#c#]
*M3/4
8b/
=1
8b/L
8B/
8d/
8f#/
8b/
8dd/J
=2
(8cc#/L
8f#/
8A#/)
8e/
8d/
8c#/J
=3
8B/L
8d/
8f#/
8b/
8dd/
8ff#/J
=4
(8ee/L
8a/
8c#/)
8g/
8f#/
8e/J
=5
8d\L
8f#\
8a\
8dd\
8ff#\
8aa\J
=6
(8gg\L
8b\
8e\)
8dd\
8cc#\
8b\J
=7
8a#/L
8gg/
8ff#/
8e/
8d#/
8a/J
=8
8g#/L
8ff#/
8ee/
8d/
8c#/
8e/J
=9
8a#/L
8ee/
*^
*	*^
(8ee/	8f#\	8B\
*v	*v	*v
8dd/
8cc#/
8dd/J)
=10
(8cc#/L
8f#/
8A#/)
8g/
8f#/
8e/J
=11
8d\L
8f#\
8b\
8dd\
8ff#\
8bb\J
=12
(8gg\L
8b\
8e\)
8g\
8b\
8dd\J
=13
(8cc#/L
8e/
8A/)
8c#/
8e/
8g/J
=14
(8f#\L
8dd\
8aa\)
8ee\
8dd\
8cc\J
=15
8b\L
8g\
8b\
8dd\
8gg\
8bb\J
=16
(8ccc#\L
8ee\
8g\)
8ee\
8aa\
8ccc#\J
=17
8ddd\L
8aa\
8ff#\
8dd\
8a\
8ccc#\J
=18
8d/L
(8ddd\
8ccc#\
8bb\
8aa#\
8bb\J)
=19
(8ccc#\L
8ee\
8a#\)
8gg\
8ff#\
8ee\J
=20
8dd\L
8ff#\
8bb\
8gg#\
8aa\
8ff#\J
=21
8ee#\L
8gg#\
8bb\
8ddd\
8ccc#\
8b\J
=22
8a\L
8cc#\
8ff#\
8aa\
8ccc#\
8ee\J
=23
8dd#\L
8ff#\
8aa\
8ccc\
8bb\
8a\J
=24
8g#\L
8b\
8ee#\
8gg#\
8bb\
8f#\J
=25
8e#\L
8g#\
8cc#\
8ee#\
8gg#\
8bb\J
=26
(8aa\L
8cc#\
8f#\)
8gg\
8ff#\
8ee\J
=27
(8dd/L
8f#/
8B/)
8cc/
8b/
8a/J
=28
(8g\L
8b\
8dd\)
8gg\
8ee#\
8ff#\J
=29
(8b/L
8e#/
8G#/)
8e#/
8b/
8dd/J
=30
8cc#/L
8a/
8g#/
8f#/
8c#/
8e#/J
=31
(8f#/L
8a#/
8cc#/)
8ee/
8dd/
8b/J
=32
(8cc#/L
8a#/J)
4.f#/
=:|!|:
*>B
8cc#\
=33
8cc#/L
8ff#/
8cc#/
8a#/
8f#/
8d/J
=34
8G#/L
8e/
8A#/
8f#/
8cc#/
8ee/J
=35
(8dd/L
8f#/
8B/)
8f#/
8b/
8dd/J
=36
8ee/L
8a/
(8d#/
8a/
8ff#/)
8a/J
=37
8g\L
8e\
8g\
8b\
8ee\
8gg\J
=38
8aa\L
8dd\
(8g#\
8dd\
8bb\)
8dd\J
=39
8cc\L
8ee\
8aa\
8ff#\
8gg\
8ee\J
=40
(8dd#\L
8ff#\
8aa\)
8ccc\
8bb\
8a\J
=41
8g\L
8bb\
8aa\
8f#\
8e\
8gg\J
=42
(8ff#/L
8b/
8d#/)
8a/
8g/
8f#/J
=43
8e/L
8gg/
8ff#/
8d/
8c/
8ee/J
=44
(8dd/L
8g#/
8B/)
8ff/
8ee/
8dd/J
=45
8cc\L
8a\
8cc\
8ee\
8ff\
8aa\J
=46
(8dd#/L
8f#/
8A/)
8ff#/
8dd#/
8b/J
=47
8bb\L
8gg\
8ee\
8gg\
8b\
8dd#\J
=48
(8e/L
8f#/
8g/)
8b/
8dd#/
8ee/J
=49
8gg#/L
8b/
8d/
8b/
8ee/
8gg#/J
=50
8aa\L
8ee\
8cc#\
8ee\
8cc#\
8a\J
=51
8f#\L
8dd\
8b\
8g#\
8ee\
8dd\J
=52
8cc#\L
8ee\
8cc#\
8a\
8e\
8g\J
=53
8f#\L
8aa\
8gg\
8e\
8d\
8ff#\J
=54
(8ee/L
8a/
8c#/)
8b/
8a/
8g/J
=55
8f#/L
8dd/
8cc#/
8e/
8d/
8b/J
=56
(8c#/L
8e/
8g/)
8b/
8a/
8g/J
=57
8f#/L
8c/
8B/
8g/
8a/
8A/J
=58
8G/L
8d/
8b/
8dd/
8cc#/
8ee/J
=59
8aa/L
8g/
8f#/
8dd/
8A/
8cc#/J
=60
8dd/L
(8d/
8c#/
8B/
8A#/
8B/J)
=61
8A#/L
8c#/
8f#/
8a#/
8cc#/
8ee/J
=62
8dd\L
8ff#\
8dd\
8b\
8g#\
8b\J
=63
8e#\L
8g#\
8cc#\
8ee#\
8gg#\
8bb\J
=64
8aa#\L
8ccc#\
8aa#\
8ff#\
8cc#\
8ee\J
=65
8dd#\L
8ccc\
8bb\
8a\
8g#\
8dd\J
=66
8cc#\L
8bb\
8aa\
8g\
8f#\
8cc\J
=67
8b\L
8aa\
8gg\
8f#\
8e\
8b\J
=68
8a#\L
8gg\
8ff#\
8e\
8d#\
8a\J
=69
8g#\L
8b\
8dd\
8ff#\
8ee\
8d\J
=70
8c#/L
8B/
8A#/
8gg\
8ff#\
8ee\J
=71
8dd\L
8ff#\
8dd\
8b\
8f#\
8a#\J
=72
(8b/L
8a/
8g/
8f#/
8e/
8d#/J
=73
8e/L
8d#/
8e/)
8G#/
8e/
8dd/J
=74
(8cc#/L
8b/
8a/
8g#/
8f#/
8e#/J
=75
8f#/L
8e#/
8f#/)
8A#/
8f#/
8ee/J
=76
(8dd#\L
8ff#\
8aa\)
8ccc\
8bb\
8aa\J
=77
(8gg\L
8ff#\
8ee#\)
8ff#\
(8cc#\
8dd\J
=78
8ee\L)
(8a#\
8b\
8cc#\)
8f#\
8a#\J
=79
8B/L
8d/
8f#/
8b/
8dd/
8ff#/J
=80
2bb\
8r
==:|!
*-
!!!ENC: Craig Sapp
!!!END: 2004/05/06/
